Numix-Circle/48x48/apps/lingot-icon.svg

<?xml version="1.0" encoding="UTF-8" standalone="no"?>
<svg
   xmlns:dc="http://purl.org/dc/elements/1.1/"
   xmlns:cc="http://creativecommons.org/ns#"
   xmlns:rdf="http://www.w3.org/1999/02/22-rdf-syntax-ns#"
   xmlns:svg="http://www.w3.org/2000/svg"
   xmlns="http://www.w3.org/2000/svg"
   xmlns:xlink="http://www.w3.org/1999/xlink"
   xmlns:sodipodi="http://sodipodi.sourceforge.net/DTD/sodipodi-0.dtd"
   xmlns:inkscape="http://www.inkscape.org/namespaces/inkscape"
   width="48"
   viewBox="0 0 13.546667 13.546667"
   height="48"
   id="svg2"
   version="1.1"
   inkscape:version="0.91 r13725"
   sodipodi:docname="lingot-icon.svg">
  <metadata
     id="metadata331">
    <rdf:RDF>
      <cc:Work
         rdf:about="">
        <dc:format>image/svg+xml</dc:format>
        <dc:type
           rdf:resource="http://purl.org/dc/dcmitype/StillImage" />
        <dc:title />
      </cc:Work>
    </rdf:RDF>
  </metadata>
  <sodipodi:namedview
     pagecolor="#ffffff"
     bordercolor="#666666"
     borderopacity="1"
     objecttolerance="10"
     gridtolerance="10"
     guidetolerance="10"
     inkscape:pageopacity="0"
     inkscape:pageshadow="2"
     inkscape:window-width="1366"
     inkscape:window-height="713"
     id="namedview329"
     showgrid="false"
     inkscape:zoom="22.627417"
     inkscape:cx="17.959318"
     inkscape:cy="21.27302"
     inkscape:window-x="0"
     inkscape:window-y="28"
     inkscape:window-maximized="1"
     inkscape:current-layer="layer2"
     inkscape:snap-to-guides="false"
     showguides="true"
     inkscape:guide-bbox="true">
    <inkscape:grid
       type="xygrid"
       id="grid3308" />
    <sodipodi:guide
       orientation="1,0"
       position="-7.8665629,24.969708"
       id="guide6290" />
  </sodipodi:namedview>
  <defs
     id="defs4">
    <linearGradient
       id="linearGradient4073">
      <stop
         style="stop-color:#fccc4e;stop-opacity:1;"
         offset="0"
         id="stop4075" />
      <stop
         style="stop-color:#fcd262;stop-opacity:1;"
         offset="1"
         id="stop4077" />
    </linearGradient>
    <radialGradient
       xlink:href="#0-6"
       id="6-9"
       cx="-3"
       cy="24"
       r="10"
       gradientUnits="userSpaceOnUse" />
    <linearGradient
       id="0-6">
      <stop
         stop-color="#91b0c7"
         id="stop7-0" />
      <stop
         offset="1"
         stop-color="#91b0c7"
         stop-opacity="0"
         id="stop9-3" />
    </linearGradient>
    <radialGradient
       r="10"
       cy="24"
       cx="-3"
       gradientUnits="userSpaceOnUse"
       id="radialGradient3922"
       xlink:href="#0-6"
       inkscape:collect="always" />
    <linearGradient
       inkscape:collect="always"
       xlink:href="#linearGradient4073"
       id="linearGradient4079"
       x1="-25.499998"
       y1="15"
       x2="-25.499998"
       y2="11"
       gradientUnits="userSpaceOnUse" />
  </defs>
  <g
     inkscape:groupmode="layer"
     id="layer1"
     inkscape:label="Shadow"
     sodipodi:insensitive="true">
    <path
       style="opacity:0.05;fill:#000000;fill-opacity:1;stroke:none"
       d="M 25,2 C 12.297451,2 2,12.297451 2,25 2,31.367153 4.6007106,37.116628 8.78125,41.28125 12.865755,44.99361 18.29568,47.25 24.25,47.25 c 12.702549,0 23,-10.297451 23,-23 0,-5.95432 -2.25639,-11.384245 -5.96875,-15.46875 C 37.116628,4.6007105 31.367153,2 25,2 z M 41.28125,8.78125 C 45.135604,12.894061 47.5,18.418655 47.5,24.5 c 0,12.702549 -10.297451,23 -23,23 C 18.418655,47.5 12.894061,45.135604 8.78125,41.28125 12.940939,45.4251 18.664604,48 25,48 37.702549,48 48,37.702549 48,25 48,18.664604 45.4251,12.940939 41.28125,8.78125 z"
       transform="scale(0.28222223,0.28222223)"
       id="path3978"
       inkscape:connector-curvature="0" />
    <path
       style="opacity:0.1;fill:#000000;fill-opacity:1;stroke:none"
       d="M 41.28125,8.78125 C 44.99361,12.865755 47.25,18.29568 47.25,24.25 c 0,12.702549 -10.297451,23 -23,23 -5.95432,0 -11.384245,-2.25639 -15.46875,-5.96875 C 12.894061,45.135604 18.418655,47.5 24.5,47.5 c 12.702549,0 23,-10.297451 23,-23 0,-6.081345 -2.364396,-11.605939 -6.21875,-15.71875 z"
       transform="scale(0.28222223,0.28222223)"
       id="path3976"
       inkscape:connector-curvature="0" />
    <path
       transform="matrix(4.3274074,0,0,3.2455556,117.19278,-35.348334)"
       d="m -24,13 a 1.5,2 0 1 1 -3,0 1.5,2 0 1 1 3,0 z"
       sodipodi:ry="2"
       sodipodi:rx="1.5"
       sodipodi:cy="13"
       sodipodi:cx="-25.5"
       id="path3952"
       style="opacity:0.2;fill:#000000;fill-opacity:1;stroke:none"
       sodipodi:type="arc" />
  </g>
  <g
     inkscape:groupmode="layer"
     id="layer2"
     inkscape:label="Base">
    <path
       sodipodi:type="arc"
       style="opacity:1;fill:url(#linearGradient4079);fill-opacity:1.0;stroke:none"
       id="path3942"
       sodipodi:cx="-25.5"
       sodipodi:cy="13"
       sodipodi:rx="1.5"
       sodipodi:ry="2"
       d="m -24,13 a 1.5,2 0 1 1 -3,0 1.5,2 0 1 1 3,0 z"
       transform="matrix(4.3274075,0,0,3.2455556,117.12222,-35.418889)" />
    <path
       style="opacity:0.1;fill:#000000;fill-opacity:1;stroke:none"
       d="M 40.03125 7.53125 C 43.74361 11.615755 46 17.04568 46 23 C 46 35.702549 35.702549 46 23 46 C 17.04568 46 11.615755 43.74361 7.53125 40.03125 C 11.709416 44.322508 17.537578 47 24 47 C 36.702549 47 47 36.702549 47 24 C 47 17.537578 44.322508 11.709416 40.03125 7.53125 z "
       id="path4027"
       transform="scale(0.28222223,0.28222223)" />
    <use
       id="use102"
       xlink:href="#7"
       transform="matrix(0.39511112,0,0,0.39511112,7.9586669,-2.4271114)"
       style="opacity:0.2"
       x="0"
       y="0"
       width="744.09448"
       height="1052.3622" />
    <use
       id="use104-7"
       xlink:href="#7"
       transform="matrix(0.39511112,0,0,0.39511112,7.9586669,-2.7093336)"
       style="fill:#f9f9f9"
       x="0"
       y="0"
       width="744.09448"
       height="1052.3622" />
    <use
       id="use108-3"
       xlink:href="#7"
       transform="matrix(0.31044445,0,0,0.31044445,7.7046669,-0.67733354)"
       style="fill:#355464"
       x="0"
       y="0"
       width="744.09448"
       height="1052.3622" />
    <use
       id="use110"
       xlink:href="#7"
       transform="matrix(0.22577778,0,0,0.22577778,7.4506669,1.3546665)"
       style="fill:#566d80"
       x="0"
       y="0"
       width="744.09448"
       height="1052.3622" />
    <use
       id="use112"
       xlink:href="#7"
       transform="matrix(0.16933334,0,0,0.16933334,7.2813335,2.7093332)"
       style="fill:#355464"
       x="0"
       y="0"
       width="744.09448"
       height="1052.3622" />
    <use
       id="use114"
       xlink:href="#7"
       transform="matrix(0.05644445,0,0,0.05644445,6.9426669,4.5719999)"
       style="fill:url(#6-9)"
       x="0"
       y="0"
       width="744.09448"
       height="1052.3622" />
    <use
       id="use116"
       xlink:href="#7"
       transform="matrix(0.02822222,0,0,0.02822222,6.8580002,6.6604444)"
       style="fill:url(#radialGradient3922)"
       x="0"
       y="0"
       width="744.09448"
       height="1052.3622" />
    <g
       id="g6292">
      <path
         style="fill:#000000;fill-opacity:0.09803922;fill-rule:evenodd;stroke:none"
         d="m 7.0555557,3.9511112 c -1.5817849,0 -3.3184316,1.1998459 -3.7394445,3.7437025 l 2.6314613,0.9217837 c 0.069568,0.5523978 0.5661543,0.9789584 1.1079832,0.9789584 0.541829,0 1.0384167,-0.4265606 1.1079841,-0.9789584 L 10.794997,7.6948137 C 10.382643,5.1455826 8.6373408,3.9511112 7.0555557,3.9511112 z"
         id="path3255"
         inkscape:connector-curvature="0"
         sodipodi:nodetypes="sccsccs" />
      <path
         sodipodi:nodetypes="sccsccs"
         inkscape:connector-curvature="0"
         id="path57"
         d="m 6.7733335,3.668889 c -1.5817849,0 -3.3184316,1.1998459 -3.7394445,3.7437025 l 2.6314613,0.9217837 c 0.069568,0.5523978 0.5661543,0.9789584 1.1079832,0.9789584 0.541829,0 1.0384167,-0.4265606 1.1079841,-0.9789584 L 10.512777,7.4125915 C 10.100423,4.8633604 8.3551186,3.668889 6.7733335,3.668889 z"
         style="fill:#f6e6b1;fill-opacity:1;fill-rule:evenodd;stroke:none" />
      <path
         style="fill:#000000;fill-opacity:0.1372549;fill-rule:evenodd;stroke:none"
         d="M 7.3732253,8.012796 C 7.3003263,7.9140433 7.2036582,7.8328423 7.0880483,7.774161 6.7218989,7.5883003 6.3048556,7.7211744 6.1519316,8.078164 c -0.1529239,0.356992 0.018338,0.7978822 0.3844875,0.9837417 0.3634928,0.1845111 0.7804616,0.047248 0.9361162,-0.3040059 0.00116,-0.00238 0.00213,-0.00513 0.00334,-0.00771 L 8.6110806,6.1000332 C 8.9773587,7.1233021 8.8460231,7.2906909 8.0526607,7.9827252 9.4773491,7.4795168 9.2376473,6.8763596 8.5844444,5.1852786 8.1643441,6.1659795 7.7334738,7.1718158 7.3732243,8.0127992 z"
         id="path3830"
         inkscape:connector-curvature="0"
         sodipodi:nodetypes="ccsscccccc" />
      <path
         sodipodi:nodetypes="ccsscccccc"
         inkscape:connector-curvature="0"
         id="path57-5"
         d="M 7.2405089,7.8716853 C 7.1671308,7.7729327 7.0698273,7.6917315 6.9534573,7.6330504 6.5849012,7.4471895 6.1651167,7.5800635 6.0111882,7.9370532 5.8572591,8.2940451 6.0296458,8.7349353 6.3982025,8.9207948 6.7640848,9.1053059 7.183794,8.9680418 7.3404717,8.6167892 c 0.00116,-0.00238 0.00214,-0.00514 0.00336,-0.0077 L 8.4865059,5.9589226 C 8.8551858,6.9821911 8.722987,7.1495801 7.9244101,7.8416146 9.3584628,7.3384059 9.1171853,6.7352487 8.4596891,5.0441678 8.0368277,6.0248686 7.6031252,7.0307052 7.240508,7.8716886 z"
         style="fill:#74a471;fill-opacity:1;fill-rule:evenodd;stroke:none" />
    </g>
  </g>
  <g
     inkscape:groupmode="layer"
     id="layer3"
     inkscape:label="Symbol" />
</svg>

<svg xmlns="http://www.w3.org/2000/svg" width="48" viewBox="0 0 13.546667 13.546667" height="48"><defs><radialGradient cx="-3" cy="24" r="10" gradientUnits="userSpaceOnUse"><stop stop-color="#91b0c7"/><stop offset="1" stop-color="#91b0c7" stop-opacity="0"/></radialGradient><linearGradient id="linearGradient4079" y1="15" x2="0" y2="11" gradientUnits="userSpaceOnUse"><stop stop-color="#fccc4e" stop-opacity="1"/><stop offset="1" stop-color="#fcd262" stop-opacity="1"/></linearGradient></defs><g><path d="m 25 2 c -12.703 0 -23 10.297 -23 23 0 6.367 2.601 12.12 6.781 16.281 4.085 3.712 9.514 5.969 15.469 5.969 c 12.703 0 23 -10.297 23 -23 0 -5.954 -2.256 -11.384 -5.969 -15.469 c -4.165 -4.181 -9.914 -6.781 -16.281 -6.781 z m 16.281 6.781 c 3.854 4.113 6.219 9.637 6.219 15.719 c 0 12.703 -10.297 23 -23 23 c -6.081 0 -11.606 -2.364 -15.719 -6.219 4.16 4.144 9.883 6.719 16.219 6.719 12.703 0 23 -10.297 23 -23 0 -6.335 -2.575 -12.06 -6.719 -16.219 z" transform="scale(0.28222223,0.28222223)" opacity="0.05" fill="#000" stroke="none" fill-opacity="1"/><path d="m 41.28 8.781 c 3.712 4.085 5.969 9.514 5.969 15.469 c 0 12.703 -10.297 23 -23 23 -5.954 0 -11.384 -2.256 -15.469 -5.969 c 4.113 3.854 9.637 6.219 15.719 6.219 c 12.703 0 23 -10.297 23 -23 0 -6.081 -2.364 -11.606 -6.219 -15.719 z" transform="scale(0.28222223,0.28222223)" opacity="0.1" fill="#000" stroke="none" fill-opacity="1"/><path transform="matrix(4.3274074,0,0,3.2455556,117.19278,-35.348334)" d="m -24 13 a 1.5 2 0 1 1 -3 0 1.5 2 0 1 1 3 0 z" opacity="0.2" fill="#000" stroke="none" fill-opacity="1"/></g><g><path d="m -24 13 a 1.5 2 0 1 1 -3 0 1.5 2 0 1 1 3 0 z" transform="matrix(4.3274075,0,0,3.2455556,117.12222,-35.418889)" opacity="1" fill="url(#linearGradient4079)" stroke="none" fill-opacity="1"/><path d="m 40.03 7.531 c 3.712 4.085 5.969 9.514 5.969 15.469 c 0 12.703 -10.297 23 -23 23 c -5.954 0 -11.384 -2.256 -15.469 -5.969 c 4.178 4.291 10.01 6.969 16.469 6.969 c 12.703 0 23 -10.297 23 -23 c 0 -6.462 -2.677 -12.291 -6.969 -16.469 z" transform="scale(0.28222223,0.28222223)" opacity="0.1" fill="#000" stroke="none" fill-opacity="1"/><g><path d="m 7.06 3.951 c -1.582 0 -3.318 1.2 -3.739 3.744 l 2.631 0.922 c 0.07 0.552 0.566 0.979 1.108 0.979 0.542 0 1.038 -0.427 1.108 -0.979 l 2.631 -0.922 c -0.412 -2.549 -2.158 -3.744 -3.739 -3.744 z" fill="#000" fill-rule="evenodd" stroke="none" fill-opacity="0.098"/><path d="m 6.773 3.669 c -1.582 0 -3.318 1.2 -3.739 3.744 l 2.631 0.922 c 0.07 0.552 0.566 0.979 1.108 0.979 0.542 0 1.038 -0.427 1.108 -0.979 l 2.631 -0.922 c -0.412 -2.549 -2.158 -3.744 -3.739 -3.744 z" fill="#f6e6b1" fill-rule="evenodd" stroke="none" fill-opacity="1"/><path d="m 7.373 8.01 c -0.073 -0.099 -0.17 -0.18 -0.285 -0.239 -0.366 -0.186 -0.783 -0.053 -0.936 0.304 c -0.153 0.357 0.018 0.798 0.384 0.984 0.363 0.185 0.78 0.047 0.936 -0.304 0.0001 -0.002 0.002 -0.005 0.003 -0.008 l 1.135 -2.65 c 0.366 1.023 0.235 1.191 -0.558 1.883 1.425 -0.503 1.185 -1.106 0.532 -2.797 -0.42 0.981 -0.851 1.987 -1.211 2.828 z" fill="#000" fill-rule="evenodd" stroke="none" fill-opacity="0.137"/><path d="m 7.241 7.872 c -0.073 -0.099 -0.171 -0.18 -0.287 -0.239 -0.369 -0.186 -0.788 -0.053 -0.942 0.304 -0.154 0.357 0.018 0.798 0.387 0.984 0.366 0.185 0.786 0.047 0.942 -0.304 c 0.0001 -0.002 0.002 -0.005 0.003 -0.008 l 1.143 -2.65 c 0.369 1.023 0.236 1.191 -0.562 1.883 1.434 -0.503 1.193 -1.106 0.535 -2.797 -0.423 0.981 -0.857 1.987 -1.219 2.828 z" fill="#74a471" fill-rule="evenodd" stroke="none" fill-opacity="1"/></g></g></svg>
